X: 10
T:Out on the Ocean
M:6/8
L:1/8
Q:3/8=120
O:Gerry's Jig #1
R:jig
K:G
B3 BAG|BdB A2 B|GED G2A|BdB AGA|B3 BAG|BdB A2 B|GED G2 A|BGF G3:|!
|:e3 edB|e3 edB|d3 def|gfe dBA|G2A B2d|ege dBA|GED G2A|1 BGF GBd:|2 BGF G3|
